!!!COM: Bach, Johann Sebastian
!!!OPR: Joh. Seb. Bachs vierstimmige Choralgesänge
!!!XEN: Four-part Chorales
!!!OTL: 10. Alle Menschen müssen sterben
!!!SCT: BWV 262
!!!SCA: Thematisch-systematisches Verzeichnis der musikalischen Werke Johann Sebastian Bach: Bach-Werke-Verzeichnis (Schmieder)
!!!YOR: Bach Gesellschaft Edition xxxix
!!!ENC: Steven Rasmussen
!!!CDT: 1685/3//-1750/7/28/
!!!OCY: Deutschland
!!!YEC: Copyright (c) 1994, 2000 Center for Computer Assisted Research in the Humanities
!!!YEM: Rights to all derivative editions reserved
!!!YEN: United States of America
**kern	**kern	**kern	**kern	**silbe
*I:[BASSO]	*I:[TENORE]	*I:[ALTO]	*I:[SOPRANO]	*I:[SOPRANO]
*>[A,A,B]	*>[A,A,B]	*>[A,A,B]	*>[A,A,B]	*
*>A	*>A	*>A	*>A	*
*clefF4	*clefGv2	*clefG2	*clefG2	*
*k[f#c#]	*k[f#c#]	*k[f#c#]	*k[f#c#]	*
*D:	*D:	*D:	*D:	*
*M4/4	*M4/4	*M4/4	*M4/4	*
=1-	=1-	=1-	=1-	=1-
4D	4F#	4d	4a	Al-was
4BB	8F#L	4d	4dd	-leda
.	8GJ	.	.	.
4FF#	4A	4d	4a	Men-le-
4GG	8GL	4d	4b	-schen-bet
.	8F#J	.	.	.
=2	=2	=2	=2	=2
4AA	8EL	4d	4.a	mÃ¼s-muss
.	8DJ	.	.	.
4AA	4E	4c#	.	.
.	.	.	8g	-senver-
4DD	4D	4d	4f#	ster--der-
4DD;	4D;	4d;	4f#;	-ben,-ben,
=3	=3	=3	=3	=3
4D	4F#	4d	4a	al-soll
4D	4F#	8dL	4a	-leses
.	.	8c#J	.	.
4E	4G	8BL	4g	Fleischan-
.	.	8c#J	.	.
4F#	4A	4d	4f#	ver--ders
=4	=4	=4	=4	=4
8GL	4B	4d	4.e	-gehtwer-
8EJ	.	.	.	.
8AL	8.AL	4c#	.	.
8AAJ	.	.	8d	wie-den
.	16GJk	.	.	.
2D;	2F#;	2d;	2d;	Heu,neu.
=5:|!	=5:|!	=5:|!	=5:|!	=5:|!
*>B	*>B	*>B	*>B	*
4AA	4A	4c#	4e	Die-
4AA	4A	4c#	4e	-ser
4D	4A	4d	8f#L	Leib
.	.	.	8g#J	.
8F#L	4A	4c#	4a	der
8EJ	.	.	.	.
=6	=6	=6	=6	=6
4D	4B	4f#	4.a	muss
4E	4B	8eL	.	.
.	.	8dJ	8g#	ver-
4AA	4A	4c#	4a	-we-
4AA;	4A;	4c#;	4a;	-sen,
=7	=7	=7	=7	=7
4E	4.G	8eL	4.b	wenn
.	.	8f#J	.	.
4E	.	4g	.	.
.	8A	.	8cc#	er
8BBL	4B	4f#	4dd	e-
8C#J	.	.	.	.
8DL	4B	4f#	4dd	-wig
8EJ	.	.	.	.
=8	=8	=8	=8	=8
4F#	4B	4.f#	4.cc#	soll
4F#	4A#	.	.	.
.	.	8e	8cc#	ge-
4BB	4B	4d	4b	-ne-
4BB;	4B;	4d;	4b;	-sen
=9	=9	=9	=9	=9
4D	4A	4d	4f#	der
4D	4A	4d	4f#	so
4GG	8GL	4d	4b	gro-
.	8F#J	.	.	.
4AA	4E	4c#	4a	-ssen
=10	=10	=10	=10	=10
4BB	8DL	4d	4a	Herr-
.	8F#J	.	.	.
4BB	8EL	4d	4g#	-lich-
.	8DJ	.	.	.
2AA;	2E;	2c#;	2a;	-keit,
=11	=11	=11	=11	=11
4GG	4G	4d	4b	die
4D	4F#	8dL	4a	den
.	.	8c#J	.	.
4E	4G	8BL	4g	From-
.	.	8c#J	.	.
4F#	4A	4d	4f#	-men
=12	=12	=12	=12	=12
8GL	4B	4d	4.e	ist
8EJ	.	.	.	.
8AL	8.AL	4c#	.	.
8AAJ	.	.	8d	be-
.	16GJk	.	.	.
2D;	2F#;	2d;	2d;	-reit'.
==|!	==|!	==|!	==|!	==|!
*-	*-	*-	*-	*-
!!!RWG: Key is interpreted using the Humdrum key tool.
!!!END: 1994/05/03
!!!EMD: Converted from MuseData to Humdrum Dec 19, 2000, by Andreas Kornstaedt using muse2kern.
!!!EED: Craig Stuart Sapp
!!!EEV: 2024/03/31
!!!ONB: Some non-unicode characters
!!!filter-keyboard: satb2gs
